dist/img/sprites/radix-icons_cross-circled.svg

<svg width="25" height="24" viewBox="0 0 25 24" fill="none" xmlns="http://www.w3.org/2000/svg">
<path fill-rule="evenodd" clip-rule="evenodd" d="M1.81348 11.9991C1.81348 9.1887 2.92992 6.49336 4.91721 4.50607C6.90449 2.51879 9.59983 1.40234 12.4103 1.40234C15.2207 1.40234 17.9161 2.51879 19.9033 4.50607C21.8906 6.49336 23.0071 9.1887 23.0071 11.9991C23.0071 14.8096 21.8906 17.5049 19.9033 19.4922C17.9161 21.4795 15.2207 22.5959 12.4103 22.5959C9.59983 22.5959 6.90449 21.4795 4.91721 19.4922C2.92992 17.5049 1.81348 14.8096 1.81348 11.9991ZM12.4103 2.92234C10.003 2.92234 7.69424 3.87865 5.99201 5.58088C4.28978 7.28311 3.33348 9.59183 3.33348 11.9991C3.33348 14.4065 4.28978 16.7152 5.99201 18.4174C7.69424 20.1196 10.003 21.0759 12.4103 21.0759C14.8176 21.0759 17.1263 20.1196 18.8285 18.4174C20.5308 16.7152 21.4871 14.4065 21.4871 11.9991C21.4871 9.59183 20.5308 7.28311 18.8285 5.58088C17.1263 3.87865 14.8176 2.92234 12.4103 2.92234ZM16.1767 8.23434C16.3267 8.38437 16.4109 8.58781 16.4109 8.79994C16.4109 9.01208 16.3267 9.21552 16.1767 9.36554L13.5415 11.9991L16.1767 14.6327C16.3269 14.783 16.4113 14.9867 16.4113 15.1991C16.4113 15.4116 16.3269 15.6153 16.1767 15.7655C16.0265 15.9158 15.8227 16.0002 15.6103 16.0002C15.3978 16.0002 15.1941 15.9158 15.0439 15.7655L12.4103 13.1303L9.77668 15.7655C9.7023 15.8399 9.61399 15.8989 9.51681 15.9392C9.41963 15.9794 9.31547 16.0002 9.21028 16.0002C9.10509 16.0002 9.00093 15.9794 8.90374 15.9392C8.80656 15.8989 8.71826 15.8399 8.64388 15.7655C8.5695 15.6912 8.51049 15.6029 8.47024 15.5057C8.42999 15.4085 8.40927 15.3043 8.40927 15.1991C8.40927 15.094 8.42999 14.9898 8.47024 14.8926C8.51049 14.7954 8.5695 14.7071 8.64388 14.6327L11.2791 11.9991L8.64388 9.36554C8.49366 9.21533 8.40927 9.01159 8.40927 8.79914C8.40927 8.5867 8.49366 8.38296 8.64388 8.23274C8.7941 8.08253 8.99784 7.99813 9.21028 7.99813C9.42272 7.99813 9.62646 8.08253 9.77668 8.23274L12.4103 10.8679L15.0439 8.23274C15.1182 8.15824 15.2065 8.09913 15.3037 8.0588C15.4009 8.01847 15.5051 7.99771 15.6103 7.99771C15.7155 7.99771 15.8197 8.01847 15.9169 8.0588C16.0141 8.09913 16.1024 8.15984 16.1767 8.23434Z" fill="#FF0000"/>
</svg>

<svg width="25" height="24" viewBox="0 0 25 24" fill="none" xmlns="http://www.w3.org/2000/svg"><path fill-rule="evenodd" clip-rule="evenodd" d="M1.813 12a10.597 10.597 0 1121.194 0 10.597 10.597 0 01-21.194 0zM12.41 2.921a9.077 9.077 0 100 18.154 9.077 9.077 0 000-18.154zm3.767 5.312a.8.8 0 010 1.132l-2.636 2.633 2.636 2.634a.801.801 0 01-1.133 1.133L12.41 13.13l-2.633 2.635a.802.802 0 11-1.133-1.132l2.635-2.634-2.635-2.633a.801.801 0 111.133-1.133l2.633 2.635 2.634-2.635a.8.8 0 011.133.001z" fill="red"/></svg>
